styles/1/Numix/22/places/grey-folder-download.svg

<?xml version="1.0" encoding="UTF-8" standalone="no"?>
<!-- Created with Inkscape (http://www.inkscape.org/) -->

<svg
   xmlns:dc="http://purl.org/dc/elements/1.1/"
   xmlns:cc="http://creativecommons.org/ns#"
   xmlns:rdf="http://www.w3.org/1999/02/22-rdf-syntax-ns#"
   xmlns:svg="http://www.w3.org/2000/svg"
   xmlns="http://www.w3.org/2000/svg"
   xmlns:sodipodi="http://sodipodi.sourceforge.net/DTD/sodipodi-0.dtd"
   xmlns:inkscape="http://www.inkscape.org/namespaces/inkscape"
   width="22"
   height="22"
   id="svg2"
   version="1.1"
   inkscape:version="0.91 r"
   sodipodi:docname="grey-folder-download.svg"
   inkscape:export-filename="/media/Data/Main/Visuals/Icons/Numix/Desktop/repos/numix-wiki/Gjorgi/Numix-folders/48/New/folder-144.png"
   inkscape:export-xdpi="270"
   inkscape:export-ydpi="270">
  <defs
     id="defs4" />
  <sodipodi:namedview
     id="base"
     pagecolor="#ffffff"
     bordercolor="#666666"
     borderopacity="1.0"
     inkscape:pageopacity="0.0"
     inkscape:pageshadow="2"
     inkscape:zoom="36.7615"
     inkscape:cx="9.8223731"
     inkscape:cy="10.429905"
     inkscape:document-units="px"
     inkscape:current-layer="layer1"
     showgrid="true"
     inkscape:window-width="1280"
     inkscape:window-height="998"
     inkscape:window-x="0"
     inkscape:window-y="0"
     inkscape:window-maximized="1"
     showguides="true"
     inkscape:guide-bbox="true">
    <inkscape:grid
       type="xygrid"
       id="grid2985"
       empspacing="5"
       visible="true"
       enabled="true"
       snapvisiblegridlinesonly="true" />
  </sodipodi:namedview>
  <metadata
     id="metadata7">
    <rdf:RDF>
      <cc:Work
         rdf:about="">
        <dc:format>image/svg+xml</dc:format>
        <dc:type
           rdf:resource="http://purl.org/dc/dcmitype/StillImage" />
        <dc:title />
      </cc:Work>
    </rdf:RDF>
  </metadata>
  <g
     inkscape:label="Layer 1"
     inkscape:groupmode="layer"
     id="layer1"
     transform="translate(0,-1030.3622)">
    <path
       style="font-size:medium;font-style:normal;font-variant:normal;font-weight:normal;font-stretch:normal;text-indent:0;text-align:start;text-decoration:none;line-height:normal;letter-spacing:normal;word-spacing:normal;text-transform:none;direction:ltr;block-progression:tb;writing-mode:lr-tb;text-anchor:start;baseline-shift:baseline;color:#000000;fill:#bdbdbd;fill-opacity:1;fill-rule:nonzero;stroke:none;stroke-width:1.52408636;marker:none;visibility:visible;display:inline;overflow:visible;enable-background:accumulate;font-family:Sans;-inkscape-font-specification:Sans"
       d="M 1.625 3 C 1.2775698 3.063 0.99985296 3.3968 1 3.75 L 1 18.25 C 1.00617 18.641 1.3590206 18.9938 1.75 19 L 20.25 19 C 20.640979 18.99 20.99383 18.641 21 18.25 L 21 5.8125 C 20.9938 5.4215 20.640979 5.0062 20.25 5 L 13 5 L 13 3.75 C 12.9938 3.359 12.640979 3.0062 12.25 3 L 1.625 3 z M 11 7 C 11.554 7 12 7.446 12 8 L 12 12 L 13.53125 12 C 14.162829 12 14.162829 11.9934 13.53125 12.625 L 11.625 14.53125 C 10.993421 15.16285 11.006579 15.16285 10.375 14.53125 L 8.46875 12.625 C 7.837171 11.9934 7.837171 12 8.46875 12 L 10 12 L 10 8 C 10 7.446 10.446 7 11 7 z M 6.375 11 L 6.625 11 C 6.8341845 11 7 11.223 7 11.5 L 7 16 L 15 16 L 15 11.5 C 15 11.223 15.223 11 15.5 11 C 15.777 11 16 11.223 16 11.5 L 16 16.5 C 16 16.56925 15.993984 16.627641 15.96875 16.6875 C 15.965667 16.695875 15.972283 16.710598 15.96875 16.71875 C 15.888307 16.886692 15.699305 17 15.5 17 L 6.625 17 L 6.5 17 L 6.375 17 C 6.3528747 17 6.3335619 16.973539 6.3125 16.96875 C 6.2339967 16.950898 6.1788119 16.915007 6.125 16.84375 C 6.103923 16.81584 6.0781195 16.783892 6.0625 16.75 C 6.0505201 16.728494 6.0398376 16.71083 6.03125 16.6875 C 6.0121935 16.627641 6 16.56925 6 16.5 L 6 11.5 C 6 11.223 6.1658155 11 6.375 11 z "
       transform="translate(0,1030.3622)"
       id="path3912" />
  </g>
</svg>

<!-- Created with Inkscape (http://www.inkscape.org/) -->
<svg xmlns="http://www.w3.org/2000/svg" viewBox="0 0 22 22">
 <g transform="translate(0,-1030.3622)">
  <path d="m 1.625 3 c -0.347 0.063 -0.625 0.397 -0.625 0.75 l 0 14.5 c 0.006 0.391 0.359 0.744 0.75 0.75 l 18.5 0 c 0.391 -0.01 0.744 -0.359 0.75 -0.75 l 0 -12.438 c -0.006 -0.391 -0.359 -0.806 -0.75 -0.813 l -7.25 0 l 0 -1.25 c -0.006 -0.391 -0.359 -0.744 -0.75 -0.75 l -10.625 0 z m 9.375 4 c 0.554 0 1 0.446 1 1 l 0 4 l 1.531 0 c 0.632 0 0.632 -0.007 0 0.625 l -1.906 1.906 c -0.632 0.632 -0.618 0.632 -1.25 0 l -1.906 -1.906 c -0.632 -0.632 -0.632 -0.625 0 -0.625 l 1.531 0 l 0 -4 c 0 -0.554 0.446 -1 1 -1 z m -4.625 4 l 0.25 0 c 0.209 0 0.375 0.223 0.375 0.5 l 0 4.5 l 8 0 l 0 -4.5 c 0 -0.277 0.223 -0.5 0.5 -0.5 c 0.277 0 0.5 0.223 0.5 0.5 l 0 5 c 0 0.069 -0.006 0.128 -0.031 0.188 c -0.003 0.008 0.004 0.023 0 0.031 c -0.08 0.168 -0.269 0.281 -0.469 0.281 l -8.875 0 l -0.125 0 l -0.125 0 c -0.022 0 -0.041 -0.026 -0.063 -0.031 c -0.079 -0.018 -0.134 -0.054 -0.188 -0.125 c -0.021 -0.028 -0.047 -0.06 -0.063 -0.094 c -0.012 -0.022 -0.023 -0.039 -0.031 -0.063 c -0.019 -0.06 -0.031 -0.118 -0.031 -0.188 l 0 -5 c 0 -0.277 0.166 -0.5 0.375 -0.5 z" transform="translate(0,1030.3622)" style="visibility:visible;fill:#bdbdbd;fill-opacity:1;stroke:none;display:inline;color:#000;fill-rule:nonzero"/>
 </g>
</svg>
